assets/icons/basket.svg

<?xml version="1.0" encoding="UTF-8"?>
<svg width="16px" height="16px" viewBox="0 0 16 16" version="1.1" xmlns="http://www.w3.org/2000/svg" xmlns:xlink="http://www.w3.org/1999/xlink">
    <!-- Generator: Sketch 64 (93537) - https://sketch.com -->
    <title>Shape</title>
    <desc>Created with Sketch.</desc>
    <g id="Page-1" stroke="none" stroke-width="1" fill="none" fill-rule="evenodd">
        <g id="mobile-Index" transform="translate(-328.000000, -18.000000)" fill="#cccccc" fill-rule="nonzero">
            <g id="Group" transform="translate(328.000000, 18.000000)">
                <path d="M12.8,12.8 C11.912,12.8 11.2,13.512 11.2,14.4 C11.2,15.2836556 11.9163444,16 12.8,16 C13.6836556,16 14.4,15.2836556 14.4,14.4 C14.4,13.5163444 13.6836556,12.8 12.8,12.8 Z M0,0 L0,1.6 L1.6,1.6 L4.48,7.672 L3.392,9.632 C3.272,9.856 3.2,10.12 3.2,10.4 C3.2,11.2836556 3.9163444,12 4.8,12 L14.4,12 L14.4,10.4 L5.136,10.4 C5.02554305,10.4 4.936,10.3104569 4.936,10.2 C4.936,10.16 4.944,10.128 4.96,10.104 L5.68,8.8 L11.64,8.8 C12.24,8.8 12.768,8.464 13.04,7.976 L15.904,2.8 C15.96,2.672 16,2.536 16,2.4 C16,1.9581722 15.6418278,1.6 15.2,1.6 L3.368,1.6 L2.616,0 L0,0 Z M4.8,12.8 C3.912,12.8 3.2,13.512 3.2,14.4 C3.2,15.2836556 3.9163444,16 4.8,16 C5.6836556,16 6.4,15.2836556 6.4,14.4 C6.4,13.5163444 5.6836556,12.8 4.8,12.8 Z" id="Shape"></path>
            </g>
        </g>
    </g>
</svg>

<svg width="16" height="16" xmlns="http://www.w3.org/2000/svg"><path d="M12.8 12.8a1.6 1.6 0 100 3.2 1.6 1.6 0 000-3.2zM0 0v1.6h1.6l2.88 6.072-1.088 1.96a1.63 1.63 0 00-.192.768A1.6 1.6 0 004.8 12h9.6v-1.6H5.136a.2.2 0 01-.2-.2.17.17 0 01.024-.096L5.68 8.8h5.96c.6 0 1.128-.336 1.4-.824L15.904 2.8c.056-.128.096-.264.096-.4a.8.8 0 00-.8-.8H3.368L2.616 0H0zm4.8 12.8a1.6 1.6 0 100 3.2 1.6 1.6 0 000-3.2z" fill="#ccc" fill-rule="nonzero"/></svg>
